X: 5539
T: Burnside Of Tynet
R: reel
M: 4/4
K: Fmajor
B|(3ABc cB AFFA|BG_EG _eGEG|(3ABc cB AFFA|BG_EB AF FB|
(3ABc cB AFFA|BG_EG _eGEG|(3ABc cB AFAf|_e_EBG AFFB||
(3ABc cB ABcd|_efgd e_EEB|(3ABc cB ABcf|g=ece f2 fc|
(3ABc cB ABcd|_efgd e_EEB,|CF FG ABc_e|G_EBG AF F2||

